X:50
M:4/4
L:1/4
K:F
F F A A | c B/A/ G2 | (c3/2 B/ A) B/A/ | G2 F2 | F F A A | c B/A/ G2 | (c3/2 B/ A) B/A/ | G2 F2 | A A c c | d/c/ B/A/ G2 | (A3/2 G/ A) =B | c2 c2 | F F A A | c B/A/ G2 | !sintro!(c3/2 B/ A) B/A/ | G2 F2 !eintro!|]
